maxim/img/icons/zip-revert.svg

<svg width="31" height="143" viewBox="0 0 31 143" fill="none" xmlns="http://www.w3.org/2000/svg">
<path d="M30.9497 55.9995L0.949707 -0.000488281L19.4497 48.4995H5.94971L14.4497 89.9995L0.949707 94.9995L8.44971 143L5.94971 99.9995L21.9497 94.9995L14.4497 55.9995H30.9497Z" fill="black"/>
</svg>

<svg width="31" height="143" fill="none" xmlns="http://www.w3.org/2000/svg"><path d="M30.95 56 .95 0l18.5 48.5H5.95l8.5 41.5-13.5 5 7.5 48-2.5-43 16-5-7.5-39h16.5Z" fill="#000"/></svg>
